src/img/icon-phone.svg

<svg height="22" viewBox="0 0 21 22" width="21" xmlns="http://www.w3.org/2000/svg"><path d="m25.9036196 26.7516854c.2922523-.2935896 2.0429728-.7330345 1.8968345-2.6384263-.1461286-.5862275-.3643742-2.1981518-.6566265-3.1513723-.7296956-2.3449588-.8758339-3.2973009-3.0639005-2.8578072-1.0210005.2201959-1.9699036 1.1724794-2.4073469 2.0523209-4.0120019 6.8156906 10.9426405 22.8641651 17.9454252 19.3457753.8758339-.4394449 1.8968345-1.3192619 2.1881394-2.2715552.6566265-1.9789174-.3643741-2.4917657-2.9179079-3.3705091-1.0210006-.2935896-2.3342777-.7330345-2.9179079-.8798415-1.8968345-.2935896-2.3342777 1.5385208-2.6264086 1.7587069-2.6264086-.7330345-6.8567921-5.2761206-7.4402765-7.9879992zm12.0251543 2.538139c-.1516177 1.0799575-1.8922725.8645367-1.7406447-.2163655.4538752-3.0243796-2.0439002-5.6161912-5.2978991-5.4006265-1.1351669.0721218-1.2109808-1.5838848-.0758089-1.6559875 4.3900479-.2884826 7.7197599 3.1687288 7.1143577 7.2730898zm4.0242511.9628531c-.0706659 1.088519-1.693227.9431221-1.6225564-.1453872.4937541-5.3709357-3.3157363-9.5805815-8.5368522-9.4350879-1.0581552 0-1.0581552-1.6691157 0-1.6691157 6.1378595-.1453872 10.7239272 4.8629167 10.1593616 11.2496488z" fill="#fff" fill-rule="evenodd" transform="translate(-21 -18)"/></svg>

<?xml version="1.0" encoding="UTF-8"?>
<svg width="21px" height="22px" viewBox="0 0 21 22" version="1.1" xmlns="http://www.w3.org/2000/svg" xmlns:xlink="http://www.w3.org/1999/xlink">
    <!-- Generator: Sketch 56.2 (81672) - https://sketch.com -->
    <title>Fill 1</title>
    <desc>Created with Sketch.</desc>
    <g id="Page-1" stroke="none" stroke-width="1" fill="none" fill-rule="evenodd">
        <g id="311-Approved-" transform="translate(-633.000000, -605.000000)" fill="#FFFFFF">
            <g id="Header" transform="translate(0.000000, 387.000000)">
                <g id="Group-3" transform="translate(612.000000, 200.000000)">
                    <path d="M25.9036196,26.7516854 C26.1958719,26.4580958 27.9465924,26.0186509 27.8004541,24.1132591 C27.6543255,23.5270316 27.4360799,21.9151073 27.1438276,20.9618868 C26.414132,18.616928 26.2679937,17.6645859 24.0799271,18.1040796 C23.0589266,18.3242755 22.1100235,19.276559 21.6725802,20.1564005 C17.6605783,26.9720911 32.6152207,43.0205656 39.6180054,39.5021758 C40.4938393,39.0627309 41.5148399,38.1829139 41.8061448,37.2306206 C42.4627713,35.2517032 41.4417707,34.7388549 38.8882369,33.8601115 C37.8672363,33.5665219 36.5539592,33.127077 35.970329,32.98027 C34.0734945,32.6866804 33.6360513,34.5187908 33.3439204,34.7389769 C30.7175118,34.0059424 26.4871283,29.4628563 25.9036439,26.7509777 L25.9036196,26.7516854 Z M37.9287739,29.2898244 C37.7771562,30.3697819 36.0365014,30.1543611 36.1881292,29.0734589 C36.6420044,26.0490793 34.144229,23.4572677 30.8902301,23.6728324 C29.7550632,23.7449542 29.6792493,22.0889476 30.8144212,22.0168449 C35.2044691,21.7283623 38.5341811,25.1855737 37.9287789,29.2899347 L37.9287739,29.2898244 Z M41.953025,30.2526775 C41.8823591,31.3411965 40.259798,31.1957996 40.3304686,30.1072903 C40.8242227,24.7363546 37.0147323,20.5267088 31.7936164,20.6722024 C30.7354612,20.6722024 30.7354612,19.0030867 31.7936164,19.0030867 C37.9314759,18.8576995 42.5175436,23.8660034 41.952978,30.2527355 L41.953025,30.2526775 Z" id="Fill-1"></path>
                </g>
            </g>
        </g>
    </g>
</svg>
